Sources/Octicons.swift/Resources/Media.xcassets/package-dependencies-24.imageset/package-dependencies-24.svg

<svg xmlns="http://www.w3.org/2000/svg" viewBox="0 0 24 24" width="24" height="24">  <path fill-rule="evenodd" clip-rule="evenodd" d="M9.12619 0.639067C9.6676 0.326528 10.3346 0.326529 10.876 0.639068L19.126 5.40157C19.2292 5.46111 19.3247 5.53026 19.4119 5.60753C19.6106 5.65121 19.7909 5.77507 19.9006 5.96513C20.0104 6.15525 20.0275 6.37344 19.9658 6.56739C19.9891 6.68127 20.0011 6.79836 20.0011 6.91716V10.2501C20.0011 10.6643 19.6653 11.0001 19.2511 11.0001C18.8369 11.0001 18.5011 10.6643 18.5011 10.2501V7.63904L10.7511 12.1129V22.3591C10.7511 22.627 10.6082 22.8746 10.3761 23.0086C10.1441 23.1426 9.85819 23.1426 9.62614 23.0086L0.876189 17.9575C0.334687 17.6449 0.00110186 17.0672 0.00110186 16.4419V6.91716C0.00110186 6.79836 0.0131454 6.68127 0.0363703 6.56739C-0.0252471 6.37345 -0.00819235 6.15525 0.101561 5.96513C0.211274 5.77507 0.391606 5.6512 0.590281 5.60753C0.677463 5.53026 0.773055 5.4611 0.87619 5.40157L9.12619 0.639067ZM1.5011 7.63904V16.4419C1.5011 16.5312 1.54876 16.6138 1.62611 16.6584L9.2511 21.0601V12.1129L1.5011 7.63904ZM10.0011 10.8139L2.25098 6.33993L9.87611 1.93815C9.95346 1.8935 10.0487 1.8935 10.1261 1.93815L17.7512 6.33993L10.0011 10.8139Z"></path>
  <path d="M16.6171 17.5L19.5117 14.7983C19.8145 14.5157 19.8309 14.0411 19.5483 13.7383C19.2657 13.4355 18.7911 13.4191 18.4883 13.7017L14.2026 17.7017C14.0506 17.8436 13.9643 18.0421 13.9643 18.25C13.9643 18.4579 14.0506 18.6565 14.2026 18.7983L18.4883 22.7983C18.7911 23.0809 19.2657 23.0646 19.5483 22.7617C19.8309 22.4589 19.8145 21.9843 19.5117 21.7017L16.6171 19H23.25C23.6642 19 24 18.6642 24 18.25C24 17.8358 23.6642 17.5 23.25 17.5H16.6171Z"></path></svg>

<svg xmlns="http://www.w3.org/2000/svg" width="24" height="24" viewBox="0 0 24 24"><path d="M9.126.64a1.748 1.748 0 0 1 1.75 0l8.25 4.762c.103.06.199.128.286.206a.75.75 0 0 1 .554.96c.023.113.035.23.035.35v3.332a.75.75 0 0 1-1.5 0V7.64l-7.75 4.474V22.36a.75.75 0 0 1-1.125.65l-8.75-5.052a1.75 1.75 0 0 1-.875-1.515V6.917c0-.119.012-.236.035-.35a.749.749 0 0 1 .554-.96c.088-.078.184-.146.286-.205L9.126.639Zm.875 10.173v.001l7.75-4.474-7.625-4.402a.248.248 0 0 0-.25 0L2.251 6.34Zm-8.5-3.175v8.803c0 .09.048.172.125.216l7.625 4.402v-8.947Z"/><path d="m16.617 17.5 2.895-2.702a.75.75 0 0 0-1.024-1.096l-4.285 4a.75.75 0 0 0 0 1.096l4.285 4a.75.75 0 1 0 1.024-1.096L16.617 19h6.633a.75.75 0 0 0 0-1.5h-6.633Z"/></svg>
